X: 1
T: The Sailor's Wife
L: 1/8
M: 6/8
K: Ddor
|: "Dm"DEF E2D | d2e f2g | "C"agf edc | "F"(3ABc A "C"GEC |
   "Dm"DEF E2D | d2e f2g | afd "A7"ge^c | "Dm"d3 d3 :|
|: "F"fga fga | fga agf | "C"ecg ecg | ecg gfe |
   "Dm"fga agf | "C"efg gfe | "Dm"afd "A7"ge^c | "Dm"d3 d3 :|

%%newpage
%% header "Pizza Wizards - Emmet's Hedgehog / Donegal Lass		$P"

